actions/22x22-light/media-playlist-shuffle.svg

<svg viewBox="0 0 22 22" xmlns="http://www.w3.org/2000/svg"><path d="m13.83 12.41-1.41 1.41 3.13 3.13-2.05 2.05h5.5v-5.5l-2.04 2.04zm-.33-9.41 2.04 2.04-12.54 12.55 1.41 1.41 12.55-12.54 2.04 2.04v-5.5m-9.41 5.17-5.18-5.17-1.41 1.41 5.17 5.17z" fill="#4d4d4d"/></svg>

<svg xmlns="http://www.w3.org/2000/svg" viewBox="0 0 22 22">
  <defs id="defs3051">
    <style type="text/css" id="current-color-scheme">
      .ColorScheme-Text {
        color:#4d4d4d
      }
      </style>
  </defs>
 <path 
     style="fill:currentColor;fill-opacity:1;stroke:none"      
	 class="ColorScheme-Text"
     d="m 13.83,12.41 -1.41,1.41 3.13,3.13 -2.05,2.05 5.5,0 0,-5.5 -2.04,2.04 -3.13,-3.13 M 13.5,3 15.54,5.04 3,17.59 4.41,19 16.96,6.46 19,8.5 19,3 M 9.59,8.17 4.41,3 3,4.41 8.17,9.58 9.59,8.17 Z"
     />
</svg>
